X: 21582
T: THE ROXBURGH BALL -- Reel
R: reel
B: K\"ohler's Violin Repository, v.2, 1885 p.158 #2
F: http://www.archive.org/details/klersviolinrepos02rugg
Z: 2012 John Chambers <jc:trillian.mit.edu>
M: C|
L: 1/8
K: Bb
[|\
v(B/c/d) (d>c) Bcde | f2(fg) fedc | dcBc defd | g(GcB) AFFe |\
d2(dc) Bcde | f2(fg) fedc | dcdf g(GcB) | AFGA B2B,2 |]
vf2(fe) dfga | (g/a/b) (ag) fddg | f2(fe) defd | gecB Accg |\
f2(fe) dfga | (g/a/b) (ag) fddg | fdbf gecB | AFGA B2"^D.C.""_Fine"B,2 |]

%%sep 2 1 500

